X:552
T:Miss L. Montgomrie of Skermorlie
R:Slow Strathspey
B:The Athole Collection
M:C
L:1/8
Q:1/4=140
K:B_
D|B,2 B,>B B>AG>F|G>FG>B c<C C>D|B,2 B,>B B>AG>F|
G/A/B c/d/e d<B~B:|
d/e/|f>Bf>d f>Bg>f|f>Bf>d d<c cd/e/|fd f>Bg>B|F>B cB/c/ d<B Bd/e/|
f>Bf>d f>Bg>f|f>Bf>d d<c cd/e/|B,2 B,>B B>AG>F|G/A/B c/d/e d<B~B||
